assets/awssupplychain/original.svg

<svg height="64" viewBox="0 0 64 64" width="64" xmlns="http://www.w3.org/2000/svg"><g fill="none" fill-rule="evenodd"><path d="m0 0h64v64h-64z" fill="#dd344c"/><path d="m46 29v11a1 1 0 0 1 -.485.857l-9.515 5.709v-2.332l8-4.8v-8.668l-8 4.8v-2.332l8.485-5.091a.998.998 0 0 1 1.515.857m-26 10.434 8 4.8v2.332l-9.515-5.709a1 1 0 0 1 -.485-.857v-11a.998.998 0 0 1 1.515-.857l8.485 5.091v2.332l-8-4.8zm20-.735-7.515 4.175a1 1 0 0 1 -.97 0l-7.515-4.175v-2.287l8 4.444 8-4.444zm-7.001 12.519v-4.218h-2v4.216l-15.999-9.777v-18.74l16 8.889v3.412h2v-3.412l16-8.889v18.74zm-.999-39.074 15.941 8.856-15.941 8.856-15.941-8.856zm18.485 7.982-18-10a1 1 0 0 0 -.97 0l-18 10a1 1 0 0 0 -.515.874v21c0 .348.182.671.479.854l18 11a1 1 0 0 0 1.042 0l18-11c.297-.183.479-.506.479-.854v-21a1 1 0 0 0 -.515-.874" fill="#fff"/></g></svg>

<svg xmlns="http://www.w3.org/2000/svg" width="64" height="64" viewBox="0 0 64 64"><title>Icon-Architecture/48/Arch_AWS-Supply-Chain_48</title><g id="Icon-Architecture/48/Arch_AWS-Supply-Chain_48" fill="none" fill-rule="evenodd" stroke="none" stroke-width="1"><g id="Icon-Architecture-BG/48/Business-Applications" fill="#dd344c"><path id="Rectangle" d="M0 0h64v64H0z"/></g><path id="Fill-1" fill="#fff" d="M46 29v11a1 1 0 0 1-.485.857L36 46.566v-2.332l8-4.8v-8.668l-8 4.8v-2.332l8.485-5.091A.998.998 0 0 1 46 29M20 39.434l8 4.8v2.332l-9.515-5.709A1 1 0 0 1 18 40V29a.998.998 0 0 1 1.515-.857L28 33.234v2.332l-8-4.8zm20-.735-7.515 4.175a1 1 0 0 1-.97 0L24 38.699v-2.287l8 4.444 8-4.444zm-7.001 12.519V47h-2v4.216L15 41.439v-18.74l16 8.889V35h2v-3.412l16-8.889v18.74zM32 12.144 47.941 21 32 29.856 16.059 21zm18.485 7.982-18-10a1 1 0 0 0-.97 0l-18 10A1 1 0 0 0 13 21v21c0 .348.182.671.479.854l18 11a1 1 0 0 0 1.042 0l18-11c.297-.183.479-.506.479-.854V21a1 1 0 0 0-.515-.874"/></g></svg>
